X:1
T:Gegrüsset seistu
T:Georg Vogler
T:Source : Catechismus---Würzburg---J.Volmari---1652. Editor : André Vierendeels ( 19/09/17).
T:Notes : Original clefs : C1, (Notated as G2 in original print), C3, C4, F4 Original note values have been quartered Edirorial accidentals above the staff Text Middle German
T:Gegrüsset seistu
T:©
T:©
C:Georg Vogler
Z:©
%%score [ 1 2 3 4 ]
L:1/8
Q:1/4=120
M:3/4
K:C
V:1 treble nm="Soprano" snm="S"
V:2 treble nm="Alto" snm="A"
V:3 treble-8 nm="Tenor" snm="T"
V:4 bass nm="Bass" snm="B"
V:1
"^1)" z2 z2 D2 | F4 G2 | A4 G2 | c2 c2 B2 | A2 ^G2- G2 | A4 A2 |"^-natural" d4 c2 | B4 A2 | c4 A2 | %9
w: Ge-|grüs- set|sei- stu|e- del- ste|Kö- ni- *|gin, der|Men- schen|und der|En- ge-|
w: Wir|e- len-|de Kin-|der E- vae|schrey- en zu|dir, mit|traw- ren|wey- nen|seuff- tzen|
 F4 G2 | A4 G2 | ^F4 G2 | E4 E2 | D4 A2 | A3 A A2 | G2 G2 F2 | E4 D2 | ^C4 E2 | F2 F2 G2 | %19
w: lein, ein|Mut- ter|der Barm-|hert- zig-|keit, das|Le- ben un-|ser Hoff- *||nung und|Süs- sig- keit,|
w: wir, in|die- sen|e- lend'|Jam- mer-|thal, ver-|gies- en wir|un- se- rr|Thrän und|zahl, ver-|gies- sen wir|
 A2 A2 G2 | F2 E4 | ^F6 |] %22
w: und Süs- *|sig- *|keit|
w: un- s're Thrän|_ und|zahl|
V:2
"^2)""^1)" z2 z2 A,2 | D4 E2 | C4 E2 | E2 E2 E2 | C2 E4 | E4 F2 | F4 E2 | E4 E2 | F4 C2 | C4 E2 | %10
w: Ge|grüs- set|sei- stu|e- del- ste|Kö- ni-|gin, der|Men- schen|und der|En- ge-|lein, ein|
w: Ey-|a un-|ser er-|lieb- ste Für-|spre- che-|rin, dein|hei- l'ger|Nam ligt|uns im|Sinn, kehr|
 F4 E2 | D4 D2 | ^C4 C2 | D4 F2 | F3 F F2 | E2 E2 D2 | ^C4 D2 | E4 ^C2 | D2 D2 E2 | F2 F2 F2 | %20
w: Mut- ter|der Barl-|hert- zig-|keit, das|Le- ben un-|ser Hoff- *||nung und|Süs- sig keit,|und Süs- sig-|
w: auff uns|dein Barm-|hert- zig|Aug, dein|Müt- ter- lichs|Hertz an uns|Kin- dern|brauch, dein|Müt- ter- lichs|Hertz an uns|
 D4 ^C2 | D6 |] %22
w: |keit.|
w: Kin- dern|brauch.|
V:3
"^3)""^1)" z2 z2 F2 | A4 c2 | A4 B2 | A2 A2 ^G2 | A2 B4 | ^c4 d2 | A4 A2 | B4 c2 | A4 F2 | A4 c2 | %10
w: Ge-|grüs- set|sei- stu|e- del- ste|Kö- ni-|gin, der|Men- schen|und der|En- ge-|lein, ein|
w: Nach|die- sen|E- lend|uns gnä- *|dig be-|such, zeich|uns Je-|sum dein|g'se- g'nte|Frucht, O|
 c4 c2 | A4 _B2 | A4 A2 | A4 d2 | c3 c c2 | c2 c2 A2 | A4 F2 | A4 A2 |"^-natural" A2 A2 c2 | %19
w: Mut- ter|der Barm-|hert- zig-|keit, das|Le- ben un-|ser Hoff- *||nung und|Süs- sig _|
w: gü- ti-|ge, O|mild' Jung-|fraw, O|al- ler- hol-|se- lig- ste|Ma- ri-|a, O|al- ler- hold-|
 c2 c2 c2 | A2 A4 | A6 |] %22
w: keit, und Süs-|sig- *|keit|
w: se- lig- ste|Ma- ri-|a.|
V:4
"^4)""^1)" z2 z2 D,2 | D,4 C,2 | F,4 E,2 | A,,2 A,,2 E,2 | F,2 E,4 | A,,4 D,2 | D,4 A,,2 | %7
w: Ge-|grüs- set|sei- stu|e- del- ste|Kö- ni-|gin, der|Men- schen|
 E,4 A,2 | F,4 F,2 | F,4 C,2 | F,4 C,2 | D,4 G,,2 | A,,4 A,,2 | D,4 D,2 | F,3 F, F,2 | %15
w: und der|En- ge-|lein, ein|Mut- ter|der Barm-|hert- zig-|keit, das|Le- ben un-|
 C,2 C,2 D,2 | A,,4 _B,,2 | A,,4 A,,2 | D,2 D,2 C,2 | F,2 F,2 C,2 | D,2 A,,4 | D,6 |] %22
w: ser Hoff- *||nung und|Süs- sig- keit,|und Süs- *|* sig-|keit|

